svg/emoji_u1f954.svg

<?xml version="1.0" encoding="UTF-8" standalone="no"?>
<svg
   xmlns:dc="http://purl.org/dc/elements/1.1/"
   xmlns:cc="http://creativecommons.org/ns#"
   xmlns:rdf="http://www.w3.org/1999/02/22-rdf-syntax-ns#"
   xmlns:svg="http://www.w3.org/2000/svg"
   xmlns="http://www.w3.org/2000/svg"
   xmlns:sodipodi="http://sodipodi.sourceforge.net/DTD/sodipodi-0.dtd"
   xmlns:inkscape="http://www.inkscape.org/namespaces/inkscape"
   width="128"
   height="128"
   style="enable-background:new 0 0 128 128;"
   version="1.1"
   id="svg34"
   sodipodi:docname="emoji_u1f954.svg"
   inkscape:version="0.92+devel unknown">
  <metadata
     id="metadata40">
    <rdf:RDF>
      <cc:Work
         rdf:about="">
        <dc:format>image/svg+xml</dc:format>
        <dc:type
           rdf:resource="http://purl.org/dc/dcmitype/StillImage" />
      </cc:Work>
    </rdf:RDF>
  </metadata>
  <defs
     id="defs38" />
  <sodipodi:namedview
     pagecolor="#ffffff"
     bordercolor="#666666"
     inkscape:document-rotation="0"
     borderopacity="1"
     objecttolerance="10"
     gridtolerance="10"
     guidetolerance="10"
     inkscape:pageopacity="0"
     inkscape:pageshadow="2"
     inkscape:window-width="1680"
     inkscape:window-height="986"
     id="namedview36"
     showgrid="false"
     inkscape:zoom="3.8504174"
     inkscape:cx="34.435837"
     inkscape:cy="59.315808"
     inkscape:window-x="0"
     inkscape:window-y="27"
     inkscape:window-maximized="1"
     inkscape:current-layer="svg34" />
  <g
     id="Layer_2"
     style="display:none;">
    <path
       d=" M71.52,44.35c-6.36-3.15-15.04-9.52-16.33-11.23"
       style="display:inline;fill:none;stroke:#330000;stroke-width:1.8115;stroke-linecap:round;stroke-linejoin:round;stroke-miterlimit:10;"
       id="path2" />
    <path
       d=" M100.93,47.54c-15.84-1.92-37.94-15.19-39.85-16.57"
       style="display:inline;fill:none;stroke:#330000;stroke-width:1.8115;stroke-linecap:round;stroke-linejoin:round;stroke-miterlimit:10;"
       id="path4" />
    <path
       d=" M106.25,41.12C86.91,39.26,66.33,28.38,65.9,27.88"
       style="display:inline;fill:none;stroke:#330000;stroke-width:1.8115;stroke-linecap:round;stroke-linejoin:round;stroke-miterlimit:10;"
       id="path6" />
    <path
       d=" M114.28,34.86c-15.82-0.36-42.16-9.41-43.57-10.08"
       style="display:inline;fill:none;stroke:#330000;stroke-width:1.8115;stroke-linecap:round;stroke-linejoin:round;stroke-miterlimit:10;"
       id="path8" />
    <path
       d=" M113.84,26.83c-12.91,1.05-38.1-5.93-38.94-6.04"
       style="display:inline;fill:none;stroke:#330000;stroke-width:1.8115;stroke-linecap:round;stroke-linejoin:round;stroke-miterlimit:10;"
       id="path10" />
    <path
       d=" M105.04,19.23c-9.5,1-26.01-3.26-27.3-3.53"
       style="display:inline;fill:none;stroke:#330000;stroke-width:1.8115;stroke-linecap:round;stroke-linejoin:round;stroke-miterlimit:10;"
       id="path12" />
  </g>
  <path
     inkscape:connector-curvature="0"
     id="path15"
     style="fill:#a47337;fill-opacity:1"
     d="m 112.51,21.82 c -4.8,-3.07 -10.15,-5.51 -15.56,-7.61 -7.7,-2.99 -15.42,-3.67 -23.2,-2.18 -6.89,1.32 -13.39,4.5 -18.93,8.9 C 51.36,23.67 47.9,26.42 44.69,29.4 36.95,36.6 29.1,43.79 22.14,51.65 16.01,58.56 10.52,66.11 5.7,73.88 1.56,80.55 1.07,87.87 3.54,95.12 c 5.5,16.09 31.28,26.36 47.4,19.42 5.88,-2.53 11.69,-5.27 17.48,-8.01 6.66,-3.15 13.16,-6.7 19.94,-9.56 C 109.1,88.2 121.19,72.96 125.25,52.46 127.77,39.74 123.59,28.9 112.51,21.82 Z M 60.63,33.33 c 0.11,0.42 -0.25,-0.01 -0.14,0.41 -0.03,-0.11 -0.06,-0.23 -0.09,-0.34 0.08,-0.03 0.16,-0.05 0.23,-0.07 z" />
  <path
     style="fill:#000000;fill-opacity:0.40662184;stroke:none"
     d="M 97.880859 28.880859 C 97.590859 28.880859 97.309141 29.000469 97.119141 29.230469 C 96.799141 29.610469 96.800859 30.159063 97.130859 30.539062 C 101.48086 35.499062 106.42047 41.120859 106.48047 48.130859 C 106.52047 52.930859 105.58961 57.739844 104.59961 62.839844 C 104.16961 65.039844 103.73086 67.310313 103.38086 69.570312 C 103.32086 69.970313 103.50937 70.370078 103.85938 70.580078 C 104.01937 70.670078 104.19914 70.720703 104.36914 70.720703 C 104.57914 70.720703 104.80047 70.649531 104.98047 70.519531 C 109.70047 66.929531 112.01945 61.279219 111.68945 54.199219 C 111.22945 44.419219 105.39992 33.359297 98.419922 29.029297 C 98.239922 28.929297 98.060859 28.880859 97.880859 28.880859 z "
     id="path17" />
  <path
     style="fill:#000000;fill-opacity:0.40662184;stroke:none"
     d="M 34.109375 71.060547 C 32.359375 71.060547 30.720234 71.460234 29.240234 72.240234 C 28.830234 72.460234 28.620234 72.930859 28.740234 73.380859 C 28.860234 73.820859 29.250938 74.119141 29.710938 74.119141 L 29.740234 74.119141 C 29.920234 74.109141 30.099531 74.109375 30.269531 74.109375 C 36.329531 74.109375 39.869141 77.650625 43.619141 81.390625 C 44.019141 81.790625 44.420078 82.189844 44.830078 82.589844 C 45.020078 82.779844 45.269297 82.880859 45.529297 82.880859 C 45.669297 82.880859 45.820938 82.849297 45.960938 82.779297 C 46.340938 82.599297 46.569297 82.209063 46.529297 81.789062 C 46.039297 75.979062 40.349375 71.060547 34.109375 71.060547 z "
     id="path23" />
  <path
     inkscape:connector-curvature="0"
     id="path29"
     style="fill:#000000;fill-opacity:0.40662181;stroke:none"
     d="m 32.88,40.51 c 7.74,-3.96 25.52,-9.94 25.85,-8.17 0.01,2.75 -4.2,4.47 -5.5,4.94 C 43.16,40.95 31.6,46.6 22.14,51.64 24.61,48.92 30.35,42.7 32.88,40.51 Z" />
  <path
     inkscape:connector-curvature="0"
     id="path31"
     style="fill:#000000;fill-opacity:0.40662181;stroke:none"
     d="m 71,97.58 c -3.38,0.27 -8.02,0.27 -11.41,0.27 -3.16,0 -2.13,1.91 -1.22,2.19 4.24,1.29 7.86,1.95 12.29,2.15 0.89,0.04 5.96,0.29 6.76,-0.1 6.58,-3.18 10.54,-5.01 14.01,-6.51 -6.76,1.17 -14.86,1.55 -20.43,2 z" />
</svg>

<svg xmlns="http://www.w3.org/2000/svg" width="128" height="128"><path d="M112.51 21.82c-4.8-3.07-10.15-5.51-15.56-7.61-7.7-2.99-15.42-3.67-23.2-2.18-6.89 1.32-13.39 4.5-18.93 8.9-3.46 2.74-6.92 5.49-10.13 8.47-7.74 7.2-15.59 14.39-22.55 22.25-6.13 6.91-11.62 14.46-16.44 22.23-4.14 6.67-4.63 13.99-2.16 21.24 5.5 16.09 31.28 26.36 47.4 19.42 5.88-2.53 11.69-5.27 17.48-8.01 6.66-3.15 13.16-6.7 19.94-9.56 20.74-8.77 32.83-24.01 36.89-44.51 2.52-12.72-1.66-23.56-12.74-30.64zM60.63 33.33c.11.42-.25-.01-.14.41l-.09-.34c.08-.03.16-.05.23-.07z" fill="#a47337"/><path d="M97.88 28.88a.98.98 0 0 0-.76.35 1 1 0 0 0 .01 1.31c4.35 4.96 9.29 10.58 9.35 17.59.04 4.8-.89 9.61-1.88 14.71-.43 2.2-.87 4.47-1.22 6.73-.06.4.13.8.48 1.01.16.09.34.14.51.14.21 0 .43-.07.61-.2 4.72-3.59 7.04-9.24 6.71-16.32-.46-9.78-6.29-20.84-13.27-25.17-.18-.1-.36-.15-.54-.15zM34.11 71.06c-1.75 0-3.39.4-4.87 1.18a.996.996 0 1 0 .47 1.879h.03c.18-.01.36-.01.53-.01 6.06 0 9.6 3.542 13.35 7.282.4.4.8.799 1.21 1.199a.983.983 0 0 0 1.13.19c.38-.18.61-.57.57-.99-.49-5.81-6.18-10.73-12.42-10.73zM32.88 40.51c7.74-3.96 25.52-9.94 25.85-8.17.01 2.75-4.2 4.47-5.5 4.94-10.07 3.67-21.63 9.32-31.09 14.36 2.47-2.72 8.21-8.94 10.74-11.13zM71 97.58c-3.38.27-8.02.27-11.41.27-3.16 0-2.13 1.91-1.22 2.19 4.24 1.29 7.86 1.95 12.29 2.15.89.04 5.96.29 6.76-.1 6.58-3.18 10.54-5.01 14.01-6.51-6.76 1.17-14.86 1.55-20.43 2z" fill-opacity=".407"/></svg>
